archdroid-icon-theme/Archdroid-Purple/mimetypes/scalable/text-x-java.svg

<svg fill="#9C27B0" height="48" viewBox="0 0 48 48" width="48" xmlns="http://www.w3.org/2000/svg"><path d="m28 4h-16c-2.21 0-3.98 1.79-3.98 4l-.02 32c0 2.21 1.77 4 3.98 4h24.02c2.21 0 4-1.79 4-4v-24zm4 32h-16v-4h16zm0-8h-16v-4h16zm-6-10v-11l11 11z" fill="#f89820"/><path d="m34.666016 10.666016-2.222656 2.777344 4.55664 4.55664h-8.201172l-4.798828 6h8v4h-11.201172l-3.199219 4h14.400391v4h-16v-2l-6.951172 8.689453c.725978.799603 1.762064 1.310547 2.931641 1.310547h24.019531c2.21 0 4-1.79 4-4v-24z" fill="#5382a1"/></svg>

<svg fill="#9C27B0" height="48" version="1.1" viewBox="0 0 48 48" width="48" xmlns="http://www.w3.org/2000/svg"><path d="M28 4L12 4c-2.21 0-3.98 1.79-3.98 4L8 40c0 2.21 1.77 4 3.98 4L36 44c2.21 0 4-1.79 4-4L40 16 28 4Zm4 32l-16 0 0-4 16 0 0 4zm0-8l-16 0 0-4 16 0 0 4zM26 18L26 7 37 18 26 18Z" fill="#f89820"/><path d="m34.666016 10.666016l-2.222656 2.777344L37 18 28.798828 18 24 24l8 0 0 4-11.201172 0-3.199219 4L32 32l0 4-16 0 0-2-6.951172 8.689453C9.774806 43.489056 10.810892 44 11.980469 44L36 44c2.21 0 4-1.79 4-4l0-24-5.333984-5.333984z" fill="#5382a1"/></svg>
